;FLAVOR:Marlin
;TIME:7555
;Filament used: 6.73776m
;Layer height: 0.2
;MINX:70.24
;MINY:175.867
;MINZ:0.2
;MAXX:329.766
;MAXY:224.133
;MAXZ:20.8
;Generated with Cura_SteamEngine main
M140 S60
M105
M190 S60
M104 S200
M105
M109 S200
M82 ;absolute extrusion mode
M107 ;Start with the fan off
G21 ;Set units to millimeters
G91 ;Change to relative positioning mode for retract filament and nozzle lifting
G1 F200 E-3 ;Retract 3mm filament for a clean start
G92 E0 ;Zero the extruded length
G1 F1000 Z5 ;Lift the nozzle 5mm before homing axes
G90 ;Absolute positioning
M82 ;Set extruder to absolute mode too
G28 X0 Y0 ;First move X/Y to min endstops
G28 Z0 ;Then move Z to min endstops
G1 F1000 Z15 ;After homing lift the nozzle 15mm before start printing

G92 E0
G92 E0
G1 F2400 E-6
;LAYER_COUNT:104
;LAYER:0
M106 S255
M204 S3000
M205 X10 Y10
G1 F600 Z0.275
G0 F3000 X101.111 Y176.316 Z0.275
G1 F600 Z0.2
G0 F3000 X98.8 Y180.067
M204 S1800
M205 X8 Y8
;TYPE:SKIRT
G1 F2400 E0
G1 X98.84 Y179.489 E0.02698
G1 X98.959 Y178.922 E0.05396
G1 X99.155 Y178.377 E0.08092
G1 X99.424 Y177.864 E0.1079
G1 X99.761 Y177.393 E0.13486
G1 X100.16 Y176.973 E0.16184
G1 X100.613 Y176.611 E0.18884
G1 X101.111 Y176.316 E0.21579
G1 X101.645 Y176.091 E0.24278
G1 X102.205 Y175.943 E0.26975
G1 X103 Y175.867 E0.30693
G1 X297 Y175.867 E9.34039
G1 X297.578 Y175.907 E9.36736
G1 X298.145 Y176.026 E9.39434
G1 X298.69 Y176.222 E9.42131
G1 X299.203 Y176.491 E9.44828
G1 X299.674 Y176.828 E9.47525
G1 X300.094 Y177.227 E9.50223
G1 X300.456 Y177.68 E9.52923
G1 X300.751 Y178.178 E9.55618
G1 X300.976 Y178.712 E9.58316
G1 X301.124 Y179.272 E9.61013
G1 X301.2 Y180.067 E9.64732
G1 X301.2 Y197.682 E10.46755
G1 X320.011 Y197.682 E11.34347
G1 X320.001 Y197.483 E11.35274
G1 X320.052 Y196.906 E11.37972
G1 X320.183 Y196.341 E11.40672
G1 X320.39 Y195.8 E11.4337
G1 X320.669 Y195.293 E11.46064
G1 X321.016 Y194.828 E11.48766
G1 X321.423 Y194.416 E11.51463
G1 X321.883 Y194.064 E11.5416
G1 X322.387 Y193.779 E11.56856
G1 X322.925 Y193.565 E11.59552
G1 X323.488 Y193.428 E11.6225
G1 X324.366 Y193.353 E11.66353
G1 X325.287 Y193.437 E11.7066
G1 X325.426 Y193.437 E11.71307
G1 X326.004 Y193.477 E11.74005
G1 X326.571 Y193.596 E11.76702
G1 X327.116 Y193.792 E11.79399
G1 X327.629 Y194.061 E11.82096
G1 X328.1 Y194.398 E11.84793
G1 X328.52 Y194.797 E11.87491
G1 X328.882 Y195.25 E11.90191
G1 X329.177 Y195.748 E11.92886
G1 X329.467 Y196.492 E11.96604
G1 X329.607 Y196.986 E11.98995
G1 X329.726 Y197.553 E12.01693
G1 X329.766 Y198.131 E12.04391
G1 X329.726 Y198.709 E12.07089
G1 X329.607 Y199.276 E12.09786
G1 X329.411 Y199.821 E12.12483
G1 X329.142 Y200.334 E12.1518
G1 X328.805 Y200.805 E12.17877
G1 X328.406 Y201.225 E12.20575
G1 X328.044 Y201.514 E12.22732
G1 X328.136 Y202.165 E12.25793
G1 X328.138 Y202.744 E12.28489
G1 X328.06 Y203.318 E12.31186
G1 X327.904 Y203.876 E12.33884
G1 X327.672 Y204.407 E12.36583
G1 X327.37 Y204.901 E12.39279
G1 X327.003 Y205.349 E12.41975
G1 X326.577 Y205.742 E12.44674
G1 X326.102 Y206.073 E12.4737
G1 X325.585 Y206.335 E12.50069
G1 X325.037 Y206.524 E12.52768
G1 X324.469 Y206.635 E12.55463
G1 X323.947 Y206.668 E12.57898
G1 X301.2 Y206.667 E13.63818
G1 X301.2 Y219.933 E14.2559
G1 X301.16 Y220.511 E14.28288
G1 X301.041 Y221.078 E14.30986
G1 X300.845 Y221.623 E14.33682
G1 X300.576 Y222.136 E14.3638
G1 X300.239 Y222.607 E14.39076
G1 X299.84 Y223.027 E14.41774
G1 X299.387 Y223.389 E14.44474
G1 X298.889 Y223.684 E14.47169
G1 X298.355 Y223.909 E14.49868
G1 X297.795 Y224.057 E14.52565
G1 X297 Y224.133 E14.56283
G1 X103 Y224.133 E23.59629
G1 X102.422 Y224.093 E23.62326
G1 X101.855 Y223.974 E23.65024
G1 X101.31 Y223.778 E23.67721
G1 X100.797 Y223.509 E23.70418
G1 X100.326 Y223.172 E23.73115
G1 X99.906 Y222.773 E23.75813
G1 X99.544 Y222.32 E23.78513
G1 X99.249 Y221.822 E23.81208
G1 X99.024 Y221.288 E23.83906
G1 X98.876 Y220.728 E23.86603
G1 X98.8 Y219.933 E23.90322
G1 X98.8 Y206.667 E24.52094
G1 X76.053 Y206.668 E25.58014
G1 X75.475 Y206.628 E25.60711
G1 X74.908 Y206.509 E25.63409
G1 X74.363 Y206.313 E25.66106
G1 X73.85 Y206.044 E25.68803
G1 X73.379 Y205.707 E25.715
G1 X72.959 Y205.308 E25.74198
G1 X72.597 Y204.855 E25.76898
G1 X72.302 Y204.357 E25.79593
G1 X72.078 Y203.823 E25.82289
G1 X71.929 Y203.263 E25.84988
G1 X71.859 Y202.688 E25.87685
G1 X71.868 Y202.109 E25.90381
G1 X71.963 Y201.519 E25.93164
G1 X71.8 Y201.405 E25.9409
G1 X71.375 Y201.012 E25.96785
G1 X71.007 Y200.564 E25.99485
G1 X70.705 Y200.069 E26.02185
G1 X70.474 Y199.538 E26.04882
G1 X70.318 Y198.98 E26.07579
G1 X70.24 Y198.406 E26.10277
G1 X70.242 Y197.827 E26.12973
G1 X70.393 Y196.976 E26.16997
G1 X70.534 Y196.483 E26.19385
G1 X70.731 Y195.938 E26.22084
G1 X71.002 Y195.426 E26.24781
G1 X71.34 Y194.956 E26.27477
G1 X71.74 Y194.537 E26.30174
G1 X72.193 Y194.176 E26.32871
G1 X72.692 Y193.882 E26.35568
G1 X73.227 Y193.659 E26.38267
G1 X73.787 Y193.512 E26.40963
G1 X74.572 Y193.438 E26.44634
G1 X74.713 Y193.438 E26.45291
G1 X75.605 Y193.356 E26.49462
G1 X76.352 Y193.408 E26.52949
G1 X76.919 Y193.527 E26.55647
G1 X77.464 Y193.723 E26.58343
G1 X77.977 Y193.992 E26.61041
G1 X78.448 Y194.329 E26.63737
G1 X78.868 Y194.728 E26.66435
G1 X79.23 Y195.181 E26.69135
G1 X79.525 Y195.679 E26.7183
G1 X79.75 Y196.213 E26.74528
G1 X79.898 Y196.773 E26.77226
G1 X79.968 Y197.348 E26.79923
G1 X79.963 Y197.683 E26.81483
G1 X98.8 Y197.682 E27.69196
G1 X98.8 Y180.067 E28.51219
M204 S3000
M205 X10 Y10
G0 F3000 X99.36 Y180.067
M204 S1800
M205 X8 Y8
G1 F2400 X99.4 Y179.529 E28.53731
G1 X99.519 Y179.003 E28.56242
G1 X99.714 Y178.501 E28.5875
G1 X99.982 Y178.032 E28.61265
G1 X100.315 Y177.609 E28.63772
G1 X100.708 Y177.239 E28.66285
G1 X101.151 Y176.932 E28.68795
G1 X101.635 Y176.693 E28.71308
G1 X102.148 Y176.528 E28.73817
G1 X102.766 Y176.427 E28.76733
G1 X297 Y176.427 E37.81168
G1 X297.538 Y176.467 E37.8368
G1 X298.064 Y176.586 E37.86191
G1 X298.566 Y176.781 E37.88699
G1 X299.035 Y177.049 E37.91214
G1 X299.458 Y177.382 E37.93721
G1 X299.828 Y177.775 E37.96235
G1 X300.135 Y178.218 E37.98744
G1 X300.374 Y178.702 E38.01258
G1 X300.539 Y179.215 E38.03767
G1 X300.64 Y179.833 E38.06683
G1 X300.64 Y198.242 E38.92403
G1 X320.624 Y198.242 E39.85457
G1 X320.562 Y197.698 E39.88006
G1 X320.583 Y197.159 E39.90518
G1 X320.683 Y196.629 E39.93029
G1 X320.86 Y196.12 E39.95539
G1 X321.11 Y195.642 E39.98051
G1 X321.429 Y195.207 E40.00562
G1 X321.808 Y194.823 E40.03075
G1 X322.239 Y194.5 E40.05583
G1 X322.714 Y194.244 E40.08095
G1 X323.221 Y194.061 E40.10605
G1 X323.75 Y193.955 E40.13117
G1 X324.522 Y193.927 E40.16714
G1 X325.156 Y193.983 E40.19678
G1 X325.964 Y194.037 E40.23449
G1 X326.49 Y194.156 E40.2596
G1 X326.992 Y194.351 E40.28468
G1 X327.461 Y194.619 E40.30983
G1 X327.884 Y194.952 E40.3349
G1 X328.254 Y195.345 E40.36003
G1 X328.561 Y195.788 E40.38513
G1 X328.852 Y196.378 E40.41576
G1 X329.068 Y197.139 E40.4526
G1 X329.176 Y197.667 E40.47769
G1 X329.205 Y198.205 E40.50278
G1 X329.154 Y198.742 E40.5279
G1 X329.025 Y199.266 E40.55302
G1 X328.819 Y199.764 E40.57812
G1 X328.542 Y200.227 E40.60324
G1 X328.2 Y200.643 E40.62832
G1 X327.8 Y201.005 E40.65344
G1 X327.386 Y201.28 E40.67658
G1 X327.529 Y201.818 E40.7025
G1 X327.585 Y202.354 E40.7276
G1 X327.562 Y202.893 E40.75272
G1 X327.46 Y203.423 E40.77785
G1 X327.28 Y203.931 E40.80295
G1 X327.027 Y204.407 E40.82805
G1 X326.707 Y204.841 E40.85316
G1 X326.326 Y205.223 E40.87828
G1 X325.893 Y205.544 E40.90338
G1 X325.417 Y205.798 E40.9285
G1 X324.909 Y205.979 E40.95361
G1 X324.38 Y206.082 E40.97871
G1 X323.947 Y206.108 E40.9989
G1 X300.64 Y206.107 E42.08418
G1 X300.64 Y219.933 E42.72797
G1 X300.6 Y220.471 E42.75309
G1 X300.481 Y220.997 E42.7782
G1 X300.286 Y221.499 E42.80328
G1 X300.018 Y221.968 E42.82843
G1 X299.685 Y222.391 E42.8535
G1 X299.292 Y222.761 E42.87864
G1 X298.849 Y223.068 E42.90373
G1 X298.365 Y223.307 E42.92887
G1 X297.852 Y223.472 E42.95396
G1 X297.234 Y223.573 E42.98312
G1 X103 Y223.573 E52.02747
G1 X102.462 Y223.533 E52.05259
G1 X101.936 Y223.414 E52.0777
G1 X101.434 Y223.219 E52.10278
G1 X100.965 Y222.951 E52.12793
G1 X100.542 Y222.618 E52.153
G1 X100.172 Y222.225 E52.17813
G1 X99.865 Y221.782 E52.20323
G1 X99.626 Y221.298 E52.22836
G1 X99.461 Y220.785 E52.25346
G1 X99.36 Y220.167 E52.28261
G1 X99.36 Y206.107 E52.93731
G1 X76.053 Y206.108 E54.02258
G1 X75.515 Y206.068 E54.0477
G1 X74.989 Y205.949 E54.07281
G1 X74.487 Y205.754 E54.09789
G1 X74.018 Y205.486 E54.12304
G1 X73.595 Y205.153 E54.14811
G1 X73.225 Y204.76 E54.17324
G1 X72.918 Y204.317 E54.19834
G1 X72.679 Y203.834 E54.22343
G1 X72.514 Y203.32 E54.24857
G1 X72.427 Y202.788 E54.27367
G1 X72.42 Y202.249 E54.29877
G1 X72.492 Y201.714 E54.32391
G1 X72.619 Y201.277 E54.3451
G1 X72.344 Y201.113 E54.36001
G1 X71.926 Y200.772 E54.38513
G1 X71.564 Y200.373 E54.41021
G1 X71.264 Y199.925 E54.43532
G1 X71.033 Y199.437 E54.46046
G1 X70.878 Y198.921 E54.48555
G1 X70.8 Y198.387 E54.51067
G1 X70.802 Y197.848 E54.53577
G1 X70.931 Y197.13 E54.56974
G1 X71.072 Y196.637 E54.59362
G1 X71.259 Y196.131 E54.61874
G1 X71.518 Y195.658 E54.64385
G1 X71.844 Y195.228 E54.66897
G1 X72.23 Y194.852 E54.69407
G1 X72.667 Y194.536 E54.71918
G1 X73.146 Y194.289 E54.74427
G1 X73.656 Y194.115 E54.76936
G1 X74.187 Y194.018 E54.7945
G1 X74.765 Y193.998 E54.82143
G1 X74.844 Y193.984 E54.82516
G1 X75.613 Y193.916 E54.86111
G1 X76.312 Y193.968 E54.89375
G1 X76.838 Y194.087 E54.91886
G1 X77.34 Y194.282 E54.94394
G1 X77.809 Y194.55 E54.96909
G1 X78.232 Y194.883 E54.99416
G1 X78.602 Y195.276 E55.01929
G1 X78.909 Y195.719 E55.04439
G1 X79.148 Y196.203 E55.06953
G1 X79.313 Y196.716 E55.09462
G1 X79.4 Y197.248 E55.11972
G1 X79.407 Y197.787 E55.14482
G1 X79.346 Y198.243 E55.16624
G1 X99.36 Y198.242 E56.09818
G1 X99.36 Y180.067 E56.94448
M204 S3000
M205 X10 Y10
G0 F3000 X99.92 Y180.067
M204 S1800
M205 X8 Y8
G1 F2400 X99.96 Y179.573 E56.96756
G1 X100.079 Y179.091 E56.99068
G1 X100.273 Y178.635 E57.01375
G1 X100.538 Y178.216 E57.03684
G1 X100.868 Y177.845 E57.05996
G1 X101.252 Y177.531 E57.08306
G1 X101.682 Y177.283 E57.10617
G1 X102.145 Y177.108 E57.12922
G1 X102.74 Y176.987 E57.15749
G1 X297 Y176.987 E66.20305
G1 X297.494 Y177.027 E66.22613
G1 X297.976 Y177.146 E66.24925
G1 X298.432 Y177.34 E66.27232
G1 X298.851 Y177.605 E66.29541
G1 X299.222 Y177.935 E66.31853
G1 X299.536 Y178.319 E66.34162
G1 X299.784 Y178.749 E66.36474
G1 X299.959 Y179.212 E66.38779
G1 X300.08 Y179.807 E66.41606
G1 X300.08 Y198.802 E67.30054
G1 X321.38 Y198.802 E68.29236
G1 X321.22 Y198.344 E68.31495
G1 X321.134 Y197.856 E68.33803
G1 X321.127 Y197.36 E68.36112
G1 X321.2 Y196.869 E68.38424
G1 X321.351 Y196.397 E68.40731
G1 X321.576 Y195.954 E68.43045
G1 X321.869 Y195.554 E68.45354
G1 X322.222 Y195.206 E68.47662
G1 X322.627 Y194.919 E68.49973
G1 X323.072 Y194.701 E68.52281
G1 X323.547 Y194.557 E68.54592
G1 X324.345 Y194.471 E68.58329
G1 X325.058 Y194.534 E68.61662
G1 X325.188 Y194.557 E68.62277
G1 X325.92 Y194.597 E68.65691
G1 X326.402 Y194.716 E68.68002
G1 X326.858 Y194.91 E68.7031
G1 X327.277 Y195.175 E68.72618
G1 X327.648 Y195.505 E68.7493
G1 X327.962 Y195.889 E68.7724
G1 X328.21 Y196.319 E68.79552
G1 X328.389 Y196.797 E68.81928
G1 X328.529 Y197.291 E68.84319
G1 X328.626 Y197.778 E68.86631
G1 X328.643 Y198.273 E68.88938
G1 X328.58 Y198.765 E68.91247
G1 X328.439 Y199.241 E68.93559
G1 X328.224 Y199.688 E68.95869
G1 X327.939 Y200.094 E68.98178
G1 X327.593 Y200.45 E69.0049
G1 X327.195 Y200.745 E69.02797
G1 X326.651 Y201.006 E69.05606
G1 X326.888 Y201.552 E69.08378
G1 X326.997 Y202.036 E69.10688
G1 X327.026 Y202.531 E69.12997
G1 X326.976 Y203.024 E69.15304
G1 X326.848 Y203.504 E69.17618
G1 X326.644 Y203.956 E69.19927
G1 X326.37 Y204.369 E69.22235
G1 X326.034 Y204.734 E69.24545
G1 X325.643 Y205.039 E69.26854
G1 X325.208 Y205.278 E69.29165
G1 X324.741 Y205.444 E69.31473
G1 X324.171 Y205.548 E69.34171
G1 X300.08 Y205.547 E70.46348
G1 X300.08 Y219.933 E71.13336
G1 X300.04 Y220.427 E71.15643
G1 X299.921 Y220.909 E71.17955
G1 X299.727 Y221.365 E71.20263
G1 X299.462 Y221.784 E71.22571
G1 X299.132 Y222.155 E71.24883
G1 X298.748 Y222.469 E71.27193
G1 X298.318 Y222.717 E71.29504
G1 X297.855 Y222.892 E71.31809
G1 X297.26 Y223.013 E71.34637
G1 X103 Y223.013 E80.39192
G1 X102.506 Y222.973 E80.415
G1 X102.024 Y222.854 E80.43812
G1 X101.568 Y222.66 E80.4612
G1 X101.149 Y222.395 E80.48428
G1 X100.778 Y222.065 E80.5074
G1 X100.464 Y221.681 E80.5305
G1 X100.216 Y221.251 E80.55361
G1 X100.041 Y220.788 E80.57666
G1 X99.92 Y220.193 E80.60493
G1 X99.92 Y205.547 E81.28691
G1 X76.053 Y205.548 E82.39826
G1 X75.559 Y205.508 E82.42134
G1 X75.077 Y205.389 E82.44446
G1 X74.621 Y205.195 E82.46753
G1 X74.202 Y204.93 E82.49062
G1 X73.831 Y204.601 E82.51371
G1 X73.517 Y204.216 E82.53684
G1 X73.269 Y203.787 E82.55991
G1 X73.094 Y203.323 E82.583
G1 X72.995 Y202.837 E82.6061
G1 X72.976 Y202.341 E82.62921
G1 X73.036 Y201.849 E82.65229
G1 X73.174 Y201.372 E82.67541
G1 X73.347 Y201.01 E82.6941
G1 X72.848 Y200.773 E82.71982
G1 X72.444 Y200.485 E82.74292
G1 X72.092 Y200.135 E82.76603
G1 X71.801 Y199.734 E82.78911
G1 X71.578 Y199.291 E82.8122
G1 X71.429 Y198.818 E82.83529
G1 X71.357 Y198.327 E82.8584
G1 X71.366 Y197.831 E82.8815
G1 X71.47 Y197.284 E82.90743
G1 X71.611 Y196.791 E82.9313
G1 X71.785 Y196.327 E82.95438
G1 X72.032 Y195.896 E82.97751
G1 X72.344 Y195.511 E83.00058
G1 X72.714 Y195.181 E83.02367
G1 X73.133 Y194.915 E83.04678
G1 X73.589 Y194.719 E83.06989
G1 X74.07 Y194.599 E83.09297
G1 X74.572 Y194.558 E83.11643
G1 X74.942 Y194.535 E83.13369
G1 X75.478 Y194.488 E83.15874
G1 X76.268 Y194.528 E83.19558
G1 X76.75 Y194.647 E83.21869
G1 X77.206 Y194.841 E83.24177
G1 X77.625 Y195.106 E83.26485
G1 X77.996 Y195.436 E83.28797
G1 X78.31 Y195.82 E83.31107
G1 X78.558 Y196.25 E83.33419
G1 X78.733 Y196.713 E83.35723
G1 X78.832 Y197.2 E83.38037
G1 X78.851 Y197.695 E83.40344
G1 X78.791 Y198.187 E83.42652
G1 X78.586 Y198.803 E83.45675
G1 X99.92 Y198.802 E84.45015
G1 X99.92 Y180.067 E85.32253
M204 S3000
M205 X10 Y10
G0 F3000 X100.48 Y180.067
M204 S1800
M205 X8 Y8
G1 F2400 X100.52 Y179.62 E85.34343
G1 X100.638 Y179.188 E85.36428
G1 X100.832 Y178.783 E85.38519
G1 X101.094 Y178.419 E85.40607
G1 X101.416 Y178.107 E85.42695
G1 X101.789 Y177.857 E85.44786
G1 X102.2 Y177.677 E85.46875
G1 X102.636 Y177.573 E85.48963
G1 X103 Y177.547 E85.50662
G1 X297 Y177.547 E94.54007
G1 X297.447 Y177.587 E94.56097
G1 X297.879 Y177.705 E94.58182
G1 X298.284 Y177.899 E94.60273
G1 X298.648 Y178.161 E94.62361
G1 X298.96 Y178.483 E94.64449
G1 X299.21 Y178.856 E94.6654
G1 X299.39 Y179.267 E94.68629
G1 X299.494 Y179.703 E94.70717
G1 X299.52 Y180.067 E94.72416
G1 X299.52 Y199.362 E95.62261
G1 X322.445 Y199.362 E96.6901
G1 X322.253 Y199.166 E96.70287
G1 X322 Y198.796 E96.72375
G1 X321.817 Y198.386 E96.74465
G1 X321.709 Y197.951 E96.76552
G1 X321.681 Y197.503 E96.78642
G1 X321.732 Y197.057 E96.80733
G1 X321.861 Y196.628 E96.82819
G1 X322.065 Y196.228 E96.84909
G1 X322.336 Y195.871 E96.86996
G1 X322.666 Y195.567 E96.89086
G1 X323.045 Y195.327 E96.91175
G1 X323.461 Y195.158 E96.93265
G1 X323.899 Y195.065 E96.9535
G1 X324.522 Y195.047 E96.98253
G1 X325.142 Y195.117 E97.01158
G1 X325.873 Y195.157 E97.04567
G1 X326.305 Y195.275 E97.06652
G1 X326.71 Y195.469 E97.08743
G1 X327.074 Y195.731 E97.10831
G1 X327.386 Y196.053 E97.12919
G1 X327.636 Y196.426 E97.1501
G1 X327.851 Y196.95 E97.17647
G1 X327.991 Y197.444 E97.20038
G1 X328.074 Y197.885 E97.22128
G1 X328.078 Y198.333 E97.24214
G1 X328.002 Y198.775 E97.26302
G1 X327.849 Y199.197 E97.28393
G1 X327.624 Y199.585 E97.30481
G1 X327.334 Y199.927 E97.32569
G1 X326.987 Y200.212 E97.3466
G1 X326.596 Y200.431 E97.36747
G1 X326.172 Y200.577 E97.38835
G1 X325.725 Y200.646 E97.40941
G1 X325.992 Y200.995 E97.42987
G1 X326.22 Y201.381 E97.45074
G1 X326.377 Y201.801 E97.47162
G1 X326.457 Y202.242 E97.49249
G1 X326.457 Y202.691 E97.5134
G1 X326.378 Y203.132 E97.53426
G1 X326.222 Y203.553 E97.55517
G1 X325.993 Y203.939 E97.57607
G1 X325.7 Y204.278 E97.59693
G1 X325.351 Y204.56 E97.61782
G1 X324.958 Y204.776 E97.63871
G1 X324.533 Y204.919 E97.65959
G1 X323.947 Y204.988 E97.68706
G1 X299.52 Y204.987 E98.82448
G1 X299.52 Y219.933 E99.52043
G1 X299.48 Y220.38 E99.54133
